Sources/FrostedUI/Resources/Icons.xcassets/rotateRight20.imageset/rotate-right-20.svg

<svg width="20" height="20" viewBox="0 0 20 20" fill="none" xmlns="http://www.w3.org/2000/svg" data-fui-icon="true">
  <path
    d="M9.93359 2.25C13.1922 2.25009 15.1977 3.95638 16.25 5.80078V3.48047C16.2502 3.06639 16.5859 2.73047 17 2.73047C17.4141 2.73047 17.7498 3.06639 17.75 3.48047V7.71191C17.7498 8.56519 17.0628 9.26942 16.2002 9.26953H12C11.5859 9.26952 11.2502 8.9336 11.25 8.51953C11.25 8.10533 11.5858 7.76954 12 7.76953H15.4785C14.9333 5.94381 13.2604 3.75011 9.93359 3.75C6.12539 3.75 3.75 6.59931 3.75 10C3.75 13.4007 6.12539 16.25 9.93359 16.25C12.652 16.2499 14.8254 14.5217 15.6914 12.46C15.8518 12.0781 16.2919 11.8982 16.6738 12.0586C17.0553 12.2191 17.2344 12.6583 17.0742 13.04C15.9949 15.61 13.3074 17.7499 9.93359 17.75C5.20847 17.75 2.25 14.1378 2.25 10C2.25 5.86223 5.20847 2.25 9.93359 2.25Z"
    fill="currentColor"
  />
</svg>

<svg xmlns="http://www.w3.org/2000/svg" width="20" height="20" fill="none" data-fui-icon="true" viewBox="0 0 20 20"><path fill="currentColor" d="M9.934 2.25c3.258 0 5.264 1.706 6.316 3.55V3.48a.75.75 0 0 1 1.5 0v4.232c0 .853-.687 1.557-1.55 1.558H12a.75.75 0 0 1 0-1.5h3.479c-.546-1.826-2.219-4.02-5.545-4.02C6.125 3.75 3.75 6.6 3.75 10s2.375 6.25 6.184 6.25c2.718 0 4.891-1.728 5.757-3.79a.75.75 0 0 1 1.383.58c-1.08 2.57-3.767 4.71-7.14 4.71-4.726 0-7.684-3.612-7.684-7.75s2.958-7.75 7.684-7.75"/></svg>
